src/apps/scalable/gtk3-demo.svg

<?xml version="1.0" encoding="UTF-8"?>
<svg width="64" height="64" version="1.1" viewBox="0 0 16.933 16.933" xmlns="http://www.w3.org/2000/svg" xmlns:cc="http://creativecommons.org/ns#" xmlns:dc="http://purl.org/dc/elements/1.1/" xmlns:rdf="http://www.w3.org/1999/02/22-rdf-syntax-ns#" xmlns:xlink="http://www.w3.org/1999/xlink">
 <metadata>
  <rdf:RDF>
   <cc:Work rdf:about="">
    <dc:format>image/svg+xml</dc:format>
    <dc:type rdf:resource="http://purl.org/dc/dcmitype/StillImage"/>
    <dc:title/>
   </cc:Work>
  </rdf:RDF>
 </metadata>
 <defs>
  <linearGradient id="linearGradient1270">
   <stop stop-color="#dd32ec" offset="0"/>
   <stop stop-color="#389cf4" offset="1"/>
  </linearGradient>
  <filter id="filter2761" x="-.024" y="-.024" width="1.048" height="1.048" color-interpolation-filters="sRGB">
   <feGaussianBlur stdDeviation="0.14552168"/>
  </filter>
  <filter id="filter855-1" x="-.059067" y="-.060963" width="1.1181" height="1.1219" color-interpolation-filters="sRGB">
   <feGaussianBlur stdDeviation="0.2154143"/>
  </filter>
  <linearGradient id="linearGradient1052" x1="5.0196" x2="11.913" y1="8.4665" y2="8.4665" gradientUnits="userSpaceOnUse" xlink:href="#linearGradient1270"/>
 </defs>
 <g transform="translate(.00015016 -4.9837e-5)">
  <path d="m10.708 1.1905c4.405 0 5.0345 0.67282 5.0345 5.388v3.7761c0 4.7152-0.62954 5.388-5.0345 5.388h-4.4832c-4.405 0-5.0346-0.6728-5.0346-5.388v-3.7761c0-4.7152 0.62954-5.388 5.0346-5.388z" enable-background="new" fill="#141414" filter="url(#filter2761)" opacity=".3"/>
  <path d="m10.708 1.1905c4.405 0 5.0345 0.67282 5.0345 5.388v3.7761c0 4.7152-0.62954 5.388-5.0345 5.388h-4.4832c-4.405 0-5.0346-0.6728-5.0346-5.388v-3.7761c0-4.7152 0.62954-5.388 5.0346-5.388z" enable-background="new" fill="#fafafa"/>
  <g transform="matrix(1.4186,0,0,1.4186,-7.9577,-422.12)" filter="url(#filter855-1)">
   <g stroke-width=".57432">
    <path d="m11.15 307.77c2.6769-0.34724 5.3572-3.7582 4.7049-5.4512-0.37742-1.607-5.0847-4.1763-6.9323-2.4509-2.5258 2.2658-0.64776 8.1044 2.2273 7.9022z" fill="#389cf4"/>
    <path d="m7.5629 305.39c1.6391 2.1446 5.9332 2.7604 7.0734 1.349 1.2029-1.1303 1.0744-6.4916-1.3436-7.229-3.2251-1.0545-7.3425 3.4912-5.7298 5.88z" fill="#dc28eb" opacity=".8"/>
   </g>
   <path d="m10.303 303.89c0 0.76057 0.01435 1.026-0.47356 1.026s-0.87538 0.15785-0.87538 0.60271c0 0.44485 0.45921 0.66011 0.74621 0.66011 0.28701 0 0.85385-0.2009 0.85385-0.80362v-2.7265l2.4395-0.56683v2.088s0.0287 0.25114-0.29418 0.25114c-0.32287 0-1.0332-0.0933-1.0332 0.58838 0 0.68162 0.68882 0.63858 0.79644 0.63858 0.10763 0 0.80362-0.11479 0.80362-0.92559v-3.8316l-2.9776 0.57402z" fill="#fff" stroke-width=".16674"/>
  </g>
  <g transform="matrix(1.4186,0,0,1.4186,-7.9577,-422.12)" stroke-width=".57432">
   <path d="m11.15 307.77c2.6769-0.34724 5.3572-3.7582 4.7049-5.4512-0.37742-1.607-5.0847-4.1763-6.9323-2.4509-2.5258 2.2658-0.64776 8.1044 2.2273 7.9022z" fill="#389cf4"/>
   <path d="m7.5629 305.39c1.6391 2.1446 5.9332 2.7604 7.0734 1.349 1.2029-1.1303 1.0744-6.4916-1.3436-7.229-3.2251-1.0545-7.3425 3.4912-5.7298 5.88z" fill="#dc28eb" opacity=".8"/>
  </g>
  <circle cx="8.4671" cy="8.4665" r="5.2044" fill="#fff"/>
  <g transform="translate(4e-5,-3e-6)" fill="url(#linearGradient1052)" stroke-width=".087453" aria-label="GTK">
   <path d="m6.9053 9.376v-0.68493h-0.56366v-0.28354h0.90527v1.0949q-0.19984 0.14177-0.44068 0.21522-0.24084 0.071738-0.51413 0.071738-0.59782 0-0.93602-0.34844-0.33649-0.35015-0.33649-0.97359 0-0.62515 0.33649-0.97359 0.3382-0.35015 0.93602-0.35015 0.24938 0 0.47313 0.06149 0.22546 0.06149 0.41506 0.18105v0.36723q-0.1913-0.16227-0.40652-0.24425-0.21522-0.081987-0.45264-0.081987-0.46801 0-0.70372 0.26133-0.234 0.26133-0.234 0.77887 0 0.51583 0.234 0.77717 0.23571 0.26133 0.70372 0.26133 0.18276 0 0.32624-0.030745 0.14348-0.032453 0.25792-0.099067z"/>
   <path d="m7.399 7.1897h2.1573v0.29037h-0.90527v2.2598h-0.34674v-2.2598h-0.90527z"/>
   <path d="m9.8893 7.1897h0.34503v1.0778l1.1444-1.0778h0.4441l-1.2657 1.1888 1.3562 1.3613h-0.45434l-1.2247-1.2281v1.2281h-0.34503z"/>
  </g>
 </g>
</svg>

<?xml version="1.0" encoding="UTF-8" standalone="no"?>
<svg
   xmlns:dc="http://purl.org/dc/elements/1.1/"
   xmlns:cc="http://creativecommons.org/ns#"
   xmlns:rdf="http://www.w3.org/1999/02/22-rdf-syntax-ns#"
   xmlns:svg="http://www.w3.org/2000/svg"
   xmlns="http://www.w3.org/2000/svg"
   xmlns:xlink="http://www.w3.org/1999/xlink"
   xmlns:sodipodi="http://sodipodi.sourceforge.net/DTD/sodipodi-0.dtd"
   xmlns:inkscape="http://www.inkscape.org/namespaces/inkscape"
   width="64"
   height="64"
   version="1.1"
   viewBox="0 0 16.933 16.933"
   id="svg50"
   sodipodi:docname="gtk3-demo.svg"
   inkscape:version="1.0.2 (e86c870879, 2021-01-15)">
  <sodipodi:namedview
     pagecolor="#ffffff"
     bordercolor="#666666"
     borderopacity="1"
     objecttolerance="10"
     gridtolerance="10"
     guidetolerance="10"
     inkscape:pageopacity="0"
     inkscape:pageshadow="2"
     inkscape:window-width="1920"
     inkscape:window-height="940"
     id="namedview52"
     showgrid="false"
     inkscape:zoom="8.5626212"
     inkscape:cx="50.263034"
     inkscape:cy="35.456974"
     inkscape:window-x="0"
     inkscape:window-y="38"
     inkscape:window-maximized="1"
     inkscape:current-layer="svg50" />
  <metadata
     id="metadata2">
    <rdf:RDF>
      <cc:Work
         rdf:about="">
        <dc:format>image/svg+xml</dc:format>
        <dc:type
           rdf:resource="http://purl.org/dc/dcmitype/StillImage" />
        <dc:title></dc:title>
      </cc:Work>
    </rdf:RDF>
  </metadata>
  <defs
     id="defs16">
    <linearGradient
       id="linearGradient1270">
      <stop
         stop-color="#dd32ec"
         offset="0"
         id="stop4" />
      <stop
         stop-color="#389cf4"
         offset="1"
         id="stop6" />
    </linearGradient>
    <filter
       id="filter2761"
       x="-.024"
       y="-.024"
       width="1.048"
       height="1.048"
       color-interpolation-filters="sRGB">
      <feGaussianBlur
         stdDeviation="0.14552168"
         id="feGaussianBlur9" />
    </filter>
    <filter
       id="filter855-1"
       x="-.059067"
       y="-.060963"
       width="1.1181"
       height="1.1219"
       color-interpolation-filters="sRGB">
      <feGaussianBlur
         stdDeviation="0.2154143"
         id="feGaussianBlur12" />
    </filter>
    <linearGradient
       id="linearGradient1052"
       x1="5.0196"
       x2="11.913"
       y1="8.4665"
       y2="8.4665"
       gradientUnits="userSpaceOnUse"
       xlink:href="#linearGradient1270" />
    <linearGradient
       id="linearGradient1057">
      <stop
         id="stop4-6"
         offset="0"
         stop-color="#fff" />
      <stop
         id="stop6-7"
         offset="1"
         stop-opacity="0"
         stop-color="#fff" />
    </linearGradient>
    <linearGradient
       gradientUnits="userSpaceOnUse"
       gradientTransform="matrix(1.5625,0,0,1.5625,0.40633,-5.1891)"
       y2="52.847"
       y1="27.545"
       x2="34.999"
       x1="34.999"
       id="linearGradient982">
      <stop
         id="stop9"
         offset="0"
         stop-color="#32b4ff" />
      <stop
         id="stop11"
         offset="1"
         stop-color="#3287ff" />
    </linearGradient>
    <style
       id="style14"
       type="text/css" />
    <style
       id="style16"
       type="text/css" />
    <linearGradient
       gradientUnits="userSpaceOnUse"
       gradientTransform="matrix(1.5625,0,0,1.5625,-9.2253,1.3231)"
       y2="43.681"
       y1="18.052"
       x2="21.314"
       x1="21.314"
       id="linearGradient1047">
      <stop
         id="stop18"
         offset="0"
         stop-color="#14dc78" />
      <stop
         id="stop20"
         offset="1"
         stop-color="#14a03c" />
    </linearGradient>
    <linearGradient
       gradientUnits="userSpaceOnUse"
       gradientTransform="matrix(1.5625,0,0,1.5625,-8.1072,-10.908)"
       y2="37.368"
       y1="12.316"
       x2="41.729"
       x1="41.729"
       id="linearGradient1049">
      <stop
         id="stop23"
         offset="0"
         stop-color="#ff3c64" />
      <stop
         id="stop25"
         offset="1"
         stop-color="#ff4628" />
    </linearGradient>
    <linearGradient
       xlink:href="#linearGradient1057"
       gradientUnits="userSpaceOnUse"
       gradientTransform="matrix(1,0,0,1.2271,0.20646,-10.975)"
       y2="39.768"
       y1="32.234"
       x2="34.427"
       x1="34.427"
       id="linearGradient1059" />
    <linearGradient
       xlink:href="#linearGradient1057"
       gradientUnits="userSpaceOnUse"
       gradientTransform="matrix(1,0,0,1.2271,-12.55,-19.793)"
       y2="39.768"
       y1="32.234"
       x2="34.427"
       x1="34.427"
       id="linearGradient1063" />
    <linearGradient
       xlink:href="#linearGradient1057"
       gradientUnits="userSpaceOnUse"
       gradientTransform="matrix(1,0,0,1.2271,5.7554,-25.761)"
       y2="39.768"
       y1="32.234"
       x2="34.427"
       x1="34.427"
       id="linearGradient1067" />
    <filter
       color-interpolation-filters="sRGB"
       height="1.048"
       width="1.048"
       y="-.024"
       x="-.024"
       id="filter2761-5">
      <feGaussianBlur
         id="feGaussianBlur31"
         stdDeviation="0.14552168" />
    </filter>
    <linearGradient
       gradientUnits="userSpaceOnUse"
       gradientTransform="matrix(3.7796,0,0,3.7796,72.4059,0.53085)"
       y2="1.17"
       y1="15.576"
       x2="15.65"
       x1="1.3315"
       id="linearGradient1024">
      <stop
         id="stop34"
         offset="0"
         stop-color="#dddfe1" />
      <stop
         id="stop36"
         offset="1"
         stop-opacity=".99608"
         stop-color="#f3f4f6" />
    </linearGradient>
    <filter
       color-interpolation-filters="sRGB"
       height="1.048"
       width="1.048"
       y="-.024"
       x="-.024"
       id="filter2761-3">
      <feGaussianBlur
         id="feGaussianBlur2"
         stdDeviation="0.14552168" />
    </filter>
    <linearGradient
       gradientUnits="userSpaceOnUse"
       gradientTransform="translate(0 -.07421)"
       y2="1.17"
       y1="15.576"
       x2="15.65"
       x1="1.3315"
       id="linearGradient1024-6">
      <stop
         id="stop5"
         offset="0"
         stop-color="#dddfe1" />
      <stop
         id="stop7"
         offset="1"
         stop-opacity=".99608"
         stop-color="#f3f4f6" />
    </linearGradient>
    <filter
       inkscape:collect="always"
       style="color-interpolation-filters:sRGB"
       id="filter1057"
       x="-0.027000001"
       width="1.054"
       y="-0.027000001"
       height="1.054">
      <feGaussianBlur
         inkscape:collect="always"
         stdDeviation="0.61875"
         id="feGaussianBlur1059" />
    </filter>
    <linearGradient
       inkscape:collect="always"
       xlink:href="#linearGradient1051"
       id="linearGradient1053"
       x1="-127"
       y1="60"
       x2="-72"
       y2="5"
       gradientUnits="userSpaceOnUse"
       gradientTransform="matrix(0.26457812,0,0,0.26457812,34.792023,-0.13493467)" />
    <linearGradient
       inkscape:collect="always"
       id="linearGradient1051">
      <stop
         style="stop-color:#dee0e2;stop-opacity:1"
         offset="0"
         id="stop1047" />
      <stop
         style="stop-color:#f1f3f5;stop-opacity:0.99607843"
         offset="1"
         id="stop1049" />
    </linearGradient>
    <linearGradient
       inkscape:collect="always"
       xlink:href="#linearGradient1270"
       id="linearGradient997"
       gradientUnits="userSpaceOnUse"
       x1="5.0196"
       y1="8.4665"
       x2="11.913"
       y2="8.4665" />
    <linearGradient
       inkscape:collect="always"
       xlink:href="#linearGradient1270"
       id="linearGradient999"
       gradientUnits="userSpaceOnUse"
       x1="5.0196"
       y1="8.4665"
       x2="11.913"
       y2="8.4665" />
    <linearGradient
       inkscape:collect="always"
       xlink:href="#linearGradient1270"
       id="linearGradient1001"
       gradientUnits="userSpaceOnUse"
       x1="5.0196"
       y1="8.4665"
       x2="11.913"
       y2="8.4665" />
  </defs>
  <rect
     style="opacity:0.3;fill:#141414;fill-opacity:1;stroke-width:2.74436;stroke-linecap:round;filter:url(#filter1057)"
     id="rect1055"
     width="55"
     height="55"
     x="4.5"
     y="4.5"
     ry="15"
     transform="scale(0.26457812)" />
  <rect
     ry="3.9686716"
     y="1.1906021"
     x="1.1906021"
     height="14.551796"
     width="14.551796"
     id="rect1045"
     style="fill:url(#linearGradient1053);fill-opacity:1;stroke-width:0.726098;stroke-linecap:round" />
  <g
     transform="matrix(1.4186,0,0,1.4186,-7.9575498,-422.12005)"
     filter="url(#filter855-1)"
     id="g30">
    <g
       stroke-width="0.57432"
       id="g26">
      <path
         d="m 11.15,307.77 c 2.6769,-0.34724 5.3572,-3.7582 4.7049,-5.4512 -0.37742,-1.607 -5.0847,-4.1763 -6.9323,-2.4509 -2.5258,2.2658 -0.64776,8.1044 2.2273,7.9022 z"
         fill="#389cf4"
         id="path22" />
      <path
         d="m 7.5629,305.39 c 1.6391,2.1446 5.9332,2.7604 7.0734,1.349 1.2029,-1.1303 1.0744,-6.4916 -1.3436,-7.229 -3.2251,-1.0545 -7.3425,3.4912 -5.7298,5.88 z"
         fill="#dc28eb"
         opacity="0.8"
         id="path24" />
    </g>
    <path
       d="m 10.303,303.89 c 0,0.76057 0.01435,1.026 -0.47356,1.026 -0.48791,0 -0.87538,0.15785 -0.87538,0.60271 0,0.44485 0.45921,0.66011 0.74621,0.66011 0.28701,0 0.85385,-0.2009 0.85385,-0.80362 v -2.7265 l 2.4395,-0.56683 v 2.088 c 0,0 0.0287,0.25114 -0.29418,0.25114 -0.32287,0 -1.0332,-0.0933 -1.0332,0.58838 0,0.68162 0.68882,0.63858 0.79644,0.63858 0.10763,0 0.80362,-0.11479 0.80362,-0.92559 v -3.8316 l -2.9776,0.57402 z"
       fill="#ffffff"
       stroke-width="0.16674"
       id="path28" />
  </g>
  <g
     transform="matrix(1.4186,0,0,1.4186,-7.9575498,-422.12005)"
     stroke-width="0.57432"
     id="g36">
    <path
       d="m 11.15,307.77 c 2.6769,-0.34724 5.3572,-3.7582 4.7049,-5.4512 -0.37742,-1.607 -5.0847,-4.1763 -6.9323,-2.4509 -2.5258,2.2658 -0.64776,8.1044 2.2273,7.9022 z"
       fill="#389cf4"
       id="path32" />
    <path
       d="m 7.5629,305.39 c 1.6391,2.1446 5.9332,2.7604 7.0734,1.349 1.2029,-1.1303 1.0744,-6.4916 -1.3436,-7.229 -3.2251,-1.0545 -7.3425,3.4912 -5.7298,5.88 z"
       fill="#dc28eb"
       opacity="0.8"
       id="path34" />
  </g>
  <circle
     style="fill:#eff1f3;fill-opacity:0.99607843;stroke-width:0.961731;stroke-linecap:round;stroke-linejoin:round;paint-order:stroke fill markers"
     id="path1197"
     cx="8.4665003"
     cy="8.4665003"
     r="5.1592736" />
  <g
     transform="translate(1.9016e-4,-4.9837e-5)"
     fill="url(#linearGradient1052)"
     stroke-width="0.087453"
     aria-label="GTK"
     id="g46"
     style="fill:url(#linearGradient1052)">
    <path
       d="M 6.9053,9.376 V 8.69107 H 6.34164 V 8.40753 h 0.90527 v 1.0949 Q 7.04707,9.6442 6.80623,9.71765 6.56539,9.789388 6.2921,9.789388 q -0.59782,0 -0.93602,-0.34844 -0.33649,-0.35015 -0.33649,-0.97359 0,-0.62515 0.33649,-0.97359 0.3382,-0.35015 0.93602,-0.35015 0.24938,0 0.47313,0.06149 0.22546,0.06149 0.41506,0.18105 v 0.36723 Q 6.98899,7.591118 6.77377,7.509138 6.55855,7.427151 6.32113,7.427151 q -0.46801,0 -0.70372,0.26133 -0.234,0.26133 -0.234,0.77887 0,0.51583 0.234,0.77717 0.23571,0.26133 0.70372,0.26133 0.18276,0 0.32624,-0.030745 0.14348,-0.032453 0.25792,-0.099067 z"
       id="path40"
       style="fill:url(#linearGradient997)" />
    <path
       d="M 7.399,7.1897 H 9.5563 V 7.48007 H 8.65103 v 2.2598 H 8.30429 V 7.48007 H 7.39902 Z"
       id="path42"
       style="fill:url(#linearGradient999)" />
    <path
       d="m 9.8893,7.1897 h 0.34503 v 1.0778 l 1.1444,-1.0778 h 0.4441 l -1.2657,1.1888 1.3562,1.3613 H 11.45899 L 10.23429,8.5117 V 9.7398 H 9.88926 Z"
       id="path44"
       style="fill:url(#linearGradient1001)" />
  </g>
  <circle
     id="circle41"
     fill="#5e4aa6"
     r="0"
     cy="-328.50018"
     cx="-312.05988"
     style="stroke-width:0.264578" />
  <circle
     id="circle43"
     fill-rule="evenodd"
     fill="#5e4aa6"
     r="0"
     cy="6.311511"
     cx="-21.143009"
     style="stroke-width:0.264578" />
</svg>
